X:1
T:Violin Sonata No. 2 in A Minor
T:Violin Sonata No. 2 in A Minor
T:BWV 1003
T:Johann Sebastian Bach
C:Johann Sebastian Bach
%%score ( 1 2 3 4 )
L:1/8
Q:1/4=30
M:4/4
K:C
V:1 treble nm="Violin" snm="Vln."
V:2 treble 
V:3 treble 
V:4 treble 
V:1
"^Grave" e2 G,/4(f/4e/4d/8c/8TB/A/) A/^G/A- A/(A/4B/4c/4d/4e/) | %1
 f/>e/d/(c/4B/4) (BTA/4)^G/4A/ TG(^F/E/) =D/>(=F/E/4D/4C/4D/8B,/8) | %2
 (C/4A,/4C/4E/4A/4c/4e/4f/4) Tf3/2(e/4f/4) g/>(f/e/d/4c/4) (cT_B/4)A/4B/ | %3
 A>a (g/4f/e/4d/e/4c/4) =B/4>(G/4A/4B/4c/4d/4e/8f/8g/8B/8) Tc3/2(B/4c/4) | %4
 d>G (3(F/E/D/) (3(A/G/F/) E3/4(3(G/8A/8B/8c3/4)(3(G/8A/8B/8 c/8d/8e/)(B/4c/4d/4e/4g/8^f/8) | %5
 ^f/(a/c'/d'/4b/4) c'/=f/4e/4f e z/ a/ B>c | %6
 c-c/4(G/4A/4B/4 c/4d/4e/4f/4e/4d/4c/4B/8A/8) ^G/4(E/4G/4B/4d/4A/4F/4A,/4) ^G,/>(f/e/4d/4c/4d/8B/8) | %7
 c(B/A/) ^f>f f3/2g/4a/4 g/f/g/e/ | %8
 (e/^d/)(^c/B/) b3/4(B/8=c/8=d/4e/4=f/4d/4) ^G/f/-f/4(=g/4f/4e/4 d/4^c/4d/)(b/d/) | %9
 ^c/>(e/ ^f/4g/4a/4b/4 =c'/4b/4c'/)^d/c'/ b>a (a/g/a/)f/ | %10
 e x e/4^c/4^A/4=G/4^F/4E/4F/4^A,/4 e>^f ^d>e | %11
 e2- e/(=f/4e/4=d/4=c/4B/4c/8=A/8) ^G-G/4(A/4B/4A/4 G/4^F/4E/4D/4C/D/4B,/4) | %12
 A-A/4(E/4^F/4^G/4 A/4B/4c/4d/4e/4=f/4=g/4_b/8a/8) (b/a/)(a/g/) (g/f/)(g/e/) | %13
 f/a/4g/4a C/4(_b/4a/4g/4f/4e/4d/4e/8^c/8) (d/4A/4_B/4G/4E/4^C/4D/4_B,/4) (A,/4D/4^F/4A/4=c/4_e/4d/4A/4) | %14
 (_B/4^F/4G/4B/4d/4^f/4g/4_b/4) (=f/T=e/)(^G/4d/4^c/4d/4) c/>(d/e/4f/4=g/4e/4) B3/4(^C/8D/8E/4=F/4=G/4E/4) | %15
 (F/4^G/4A/4d/4f/4^g/4a/4_b/4) (d^c/>)d/ d3/4(=c/8_B/8A/4=G/4F/4G/8A/8) (D/4F/4A/4d/4f/4a/4=g/8e/8f/4) | %16
 f- f/8(d/8e/8f/8g/8a/8=b/8c'/8) (d'/b/4g/4Tf/e/) e x x2 | %17
 d/(e/4f/4)^G/e/ dTc3/4B/8c/8 B-B/4(^g/4a/4b/4) (a/4g/4^f/4e/4d/4B/4G/4E/4) | %18
 (^C/=G/4A/4_B/)A/ (G/4^F/4G/e/)G/ F/4>(A/4=B/4=c/4d/4e/4=f/4g/4) (f/4e/4f/4)d/4^G/f/ | %19
 e>d (d/c/)(d/B/) a3/2(b/4c'/4) (b/4^g/4a/4f/4e/4^d/4e/4A/4) | %20
 A/8B/8c3/4 x B>A A,/(A/4^G/4A/4c/4f/) =G,/(=G/4^F/4G/4B/4e/8^d/8e/4) | %21
 (=F/4e/4a/4^g/4a/4c'/4b/4d'/4 g/4a/4e/4c/4A/4F/4A/4^c/4) !trill(!T=d2 ^d2 | !fermata![Ee]8 |] %23
[M:2/4][Q:1/4=90]"^Fuga" z e/^d/ eE | AcBd | c z z2 | z ee^d | eB/A/ B^c | dA/^G/ AB | c2 x2 | %30
 e=g^fa | g2 z g | ga/g/ ae | f2 z f | fg/f/ gd | e/f/e/d/ c/B/A/G/ | ^Fd/c/ dF | ^G/(A/B/c/ d)=F | %38
 Ed/c/ d/f/e/d/ | c/d/c/d/ d3/2c/4d/4 | e z g2 | ^f2 =f2 | e2 a2 | ^g2 =g2 | ^f2 b2 | ^a2 =a2 | %46
 ^g=g/^f/ ga | b^f/e/ f^g | aa/^g/ ab | c'g/^f/ ga | bb/a/ bc' | d'a/^g/ ab | c' x x2 | %53
 D(c'/a/ =g/^f/e/d/) | b x x2 | C(_b/g/ =f/e/d/c/) | a(a/f/ e/d/^c/=B/) | g(g/e/ d/^c/B/A/) | %58
 f/g/f/e/ d/=c/_B/A/ | f(_b/f/ e/d/c/=B/) | ^ga/g/ aa | a z z ^g | =g z f z | e z z e | %64
 ed/^c/ d_B | ^Gf ed | c>d B>A | A/e/c/A/ x/ A/x/A/ | (E/A/)(F/A/) (E/A/)(D/A/) | %69
 A/!p!e/c/A/ x/ A/x/A/ | (E/A/)(F/A/) (E/A/)(D/A/) | E/!f!(A/^G/A/ B/A/G/A/) | %72
 D/!p!(A/^G/A/ B/A/G/A/) | E/!f!e/c/A/ x/ A/x/A/ | ^D/!p!^f/c/A/ (^G/A/)(D/A/) | %75
 E/!f!b/=g/e/ x/ e/x/e/ | (B/e/)(c/e/) (B/e/)(A/e/) | e/!p!b/g/e/ x/ e/x/e/ | %78
 (B/e/)(c/e/) (B/e/)(A/e/) | B/!f!(e/^d/e/ ^f/e/d/e/) | A/!p!(e/^d/e/ ^f/e/d/e/) | %81
 B/!f!b/g/e/ x/ e/x/e/ | (c/e/)(B/e/) (A/a/)(c/a/) | Bb/a/ bB | eg^fa | g z z g | ^f2 =f2 | %87
 ea/^g/ (a/^f/)(=g/e/) | ^d z z ^f | Be/^d/ (e/c/)(=d/B/) | cB A z | A^f/e/ f^F | B=d^ce | %93
 ^d^f ba | g>a T^f>e | e z e2 | ^d2 =d2 | ^c=c/B/ cd | eB/A/ B^c | d2 d2 | ^c2 =c2 | BB/A/ Bc | %102
 dA/G/ AB | z g/f/ gG | cedf | egfa | g(c/B/ c/d/e/f/4g/4) | a x x2 | a(d/e/ ^f/g/a/b/4c'/4) | %109
 b x x2 | z c'c'b | c'c'/b/ c'/g/e/c/ | gbac' | b z z b | c' z b z | _b z a z | B/c/d/e/ f/g/a/f/ | %117
 g/a/g/f/ e/d/c/e/ | A/B/c/d/ e/f/g/e/ | f/g/f/e/ d/c/B/d/ | G/A/B/c/ d/e/f/d/ | e z z e | %122
 ea/g/ f/e/d/f/ | B/d/c/B/ A/G/F/d/ | E/c/D/C/ G,/D/c/B/ | ce/d/ eE | A/B/c/A/ B/c/d/B/ | %127
 c/d/e/c/ d/e/f/d/ | ea/^g/ (a/^f/)(=g/e/) | ^f z z2 | ^g x x2 | a x x2 | b x x2 | %133
 ^G/B/e/^g/ b/c'/d'/b/ | c'/a/f/e/ f/c/A/c/ | b/f/d/c/ d/B/^G/B/ | c/e/a/^g/ a/e/c/e/ | %137
 =g/e/^c/B/ c/A/E/G/ | F/d/A/G/ A/F/D/F/ | B,/D/^G/^F/ G/B/d/c/ | d/f/b/a/ b/f/e/d/ | %141
 c/B/A/^G/ A/c/f/c/ | B/A/=G/^F/ G/B/e/B/ | A/G/=F/E/ F/A/d/A/ | ^G/A/B/c/ d/e/f/e/ | %145
 f/e/d/^c/ d/^g/a/b/ | =c/B/A/B/ F/e/a/d/ | ^g z z =g | c2 ^c2 | d z z f | B2 d2- | dc/d/ cc' | %152
 f2 e2 | dc/B/ ca | ed/c/ dB | ceac | Ba/g/ a^d | ec' ba | g>a ^f>e | eb/a/ bB | eg^fa | g z z2 | %162
 z ee^d | eB/c/ Bb | (ec)(dB) | ce/^d/ eE | z a a^g | ac/B/ cc | cd/c/ dA | B z z _B | _Bc/B/ cG | %171
 Af/g/ fe | dg/a/ gf | e z g z | a z a z | z g/a/ gf | ea/_b/ ag | f z ^f z | g z ^g z | ab c' z | %180
 z c'ba | ^ga b z | z ba=g | ^fg a z | z g/^f/ gB | ce d=f | e^f g z | g>a T^f>g | gb/a/ bB | %189
 ^c/e/^f/g/ a/B/A/G/ | ^Fa/g/ a^c | ^d/e/d/e/ (^f/g/)(A/B/) | (c/=d/)(^F/G/) (A/B/)(^D/E/) | %193
 ^F/G/A/B/ ^c/^d/e/^f/ | g/a/g/a/ bB | e x x2 | ^dB/c/ Bb | (ec)(=dB) | c2 B2 | (AB) c2- | %200
 c(^f/c/) (B/A/)(G/^F/) | (G/^D/E/)G/ c/E/=D/B/ | (A/E/C/)E/ A/C/B,/G/ | (=F/C/A,/)C/ F/A,/G,/E/ | %204
 ^D/^F/A/c/ ^f/B/A/f/ | (G/^F/G/)B/ e/A/^G/d/ | (c/B/c/)e/ f/A/=G/e/ | (^d/e/^f/g/ a/)^F/E/c/ | %208
 (^D/E/^F/G/ A/)B,/D/F/ | G/(c/B/)(^d/ e/)(g/^f/)(^a/ | b)e (g/^f/)(e/^d/) | eG/A/ Gg | g x ^c2 | %213
 d x x2 | f x B2 | c x x2 | B x x2 | (C/D/C/)A,/ (E/F/E/)C/ | (A/B/A/)E/ (c/d/c/)A/ | _Bg/f/ gG | %220
 A/(c/_B/A/) B/(d/c/B/) | c/(_e/d/c/) d/(f/=e/d/) | e z z e | f z z f | g z z g | ag_ba | %226
 gf/e/ f/a/g/f/ | e/(g/f/e/) x2 | _B/A/B/D/ F/B/d/f/ | (_b/a/b/)f/ d/_B/F/D/ | %230
 (c/_B/c/)E/ G/c/e/g/ | (_b/a/b/)g/ e/c/G/E/ | (c/_B/c/)F/ A/c/f/g/ | (a/g/a/)f/ c/A/F/A/ | %234
 (c/_B/c/)^F/ A/c/_e/^f/ | (a/g/a/)_e/ c/A/^F/A/ | (_B/A/B/)G/ B/d/^f/a/ | (g/^f/g/)d/ _B/G/_E/D/ | %238
 (^C/B,/C/)=E/ A/^c/e/=f/ | (g/f/g/)e/ ^c/A/E/^C/ | (D/^C/D/)F/ A/d/f/=C/ | %241
 (_B,/A,/B,/)F/ _B/d/f/A,/ | G,/D/G/A/ _B/d/_e/g/ | ^ca/g/ aA | dfeg | f z z f | e z _e z | %247
 _ed/^c/ dd' | (g/f/=e/)g/ (f/e/d/)f/ | (_e/d/^c/)d/ _ba | (_e/^c/)d _ba | (d^c)g_B | Agfe | %253
 AdE^c | dF/E/ FG | AE/D/ E^F | G2 G2 | ^F2 =F2 | EE/D/ EF | GD/C/ DE | F2 F2 | E2 _E2 | %262
 D_B/c/ BA | Gc/d/ c_B | A2 A2 | _B2 =B2 | cc/d/ c_B | Ad/e/ dc | _B2 =B2 | c2 ^c2 | dA/_B/ Aa | %271
 (d_B)(cA) | (_B/A/G/A/ B)g | (cA)(_BG) | Ac/_B/ c z | z f z _e | z d/c/ d z | z g z f | %278
 z e/f/ ga | (_ba)(ag) | (gf)(fe) | d/e/d/e/ fA, | T^G,>f e/d/c/B/ | (c/A/F/)e/ d/c/B/A/ | %284
 ^Gb/a/ bd | c/(b/a/^g/) ac | (Ba)=g_B | A/(g/f/e/) fA | GfeG | F/(e/d/c/) dF | (Ed)cE | %291
 F_B/A/ Bd | (df)(f_b) | ^g(=f/e/) a z | a z z ^g | a z e z | a z g z | (fe)(ed) | d z z c | %299
 (_B/c/d/e/ f)A | ^Gf ed | c>d B>A | A z z2 | a z ^g z | aA/B/ Aa | ecdB | c z ^c z | afge | %308
 f/4g/4a/4g/4f/4e/4d/4^c/4 d/4e/4f/4e/4d/4=c/4B/4A/4 | %309
 B/4c/4d/4c/4B/4A/4^G/4^F/4 G/4A/4B/4A/4G/4F/4E/4D/4 |[Q:1/4=40] z a a^g | a4 |] %312
[M:3/4][Q:1/4=35]"^Andante" E2 z E F/E/D/C/ | G/D/F- FA G/F/E/D/ | E/G/A/B/ c x x2 | %315
 B/A/G z e/d/ e/d/c/B/ | A2 z d/e/ d/c/B/A/ | B/d/e/f/ g x x2 | f x B/c/d/e/ f/a/g/f/ | %319
 e z z/ d/c/B/ A/G/^F/4G/4E/ | ^F/D/E/F/ (G/4B/4A/4c/4B/4d/4c/4e/4) d2 | %321
 C/(e/4d/4c/4d/4e/) B-B/4c/8B/8A/4B/4 cTA |1 G2 z/ G/F/E/ D/A/G/F/ :|2 G6 | d2 z d e/d/c/B/ |: %325
 e/B/d- df e/d/c/B/ | c/d/e- ee d/c/B/A/ | a/^f/^g z (g/b/) (b/g/) (g/e/) | %328
 a2- a/b/a/=g/ ^f/e/^d/e/ | a/b/c'- c'c'/b/ a/g/a/^f/ | g/e/^d/e/ ba a/g/a/^f/ | %331
 (^fe) z e/=f/ g/a/_b- | ba z g g/f/g/e/ | ef z d/e/ f/g/a | Bc z c e/d/e/c/ | %335
 B2 z/ B/c/B/ A/G/=F/E/ | F/(_e/d/c/ B/c/)_a/g/ ^f/(c/4B/4c/)f/ | %337
 g/>(=a/g/4=f/4e/8f/8g/4) c3/2(3B/4A/4B/4 TB3/2A/4B/4 |1 c2 z2 z2 | B/c/d z d e/d/c/B/ :|2 c6 |] %341
[M:2/2][Q:1/4=90]"^Allegro" A/c/e/a/ e/d/c/B/!p! A/c/e/a/ e/d/c/B/ | %342
!f! (A/c/4d/4e/)E/ A/c/e/^G/!p! (A/c/4d/4e/)E/ A/c/e/G/ | %343
!f! A/B/4c/4d/c/4B/4 c/d/4e/4f/e/4d/4 e/a/f/d/ e/d/c/B/ | %344
!p! A/B/4c/4d/c/4B/4 c/d/4e/4f/e/4d/4 e/a/f/d/ e/d/c/B/ | %345
!f! A/c/e/a/ c'/e/c/A/ ^G/B/e/^g/ b/d/c/B/ |!p! A/c/e/a/ c'/e/c/A/ ^G/B/e/^g/ b/d/c/B/ | %347
!f! A/c/e/=g/ f/c/B/A/ G/B/d/f/ e/B/A/G/ | F/A/c/e/ d/c/B/A/ ^G/e/B/G/ E/F/D/E/ | %349
 ^C/A/e/=G/ F/D/F/=C/ B,/G/d/F/ E/C/E/B,/ | A,/F/c/E/ D/B,/D/A,/ ^G,/E/B/D/ C/A,/D/B,/ | %351
 E/C/A,/C/ E/A/c/E/ ^D/c/B/A/ ^f/A/G/^F/ | E/B,/G,/B,/ E/G/B/=D/ ^C/B/A/G/ e/g/^f/e/ | %353
 ^d/A/^F/A/ d/^f/a/=c/ B/F/^D/F/ B/d/f/a/ | %354
 (g/b/4a/4g/)^f/ e/c'/(A/B/4c/4) (=D/a/4g/4f/)e/ d/b/(G/A/4B/4) | %355
 (C/g/4^f/4e/)d/ (c/a/4g/4f/)e/ (^d/f/4d/4B/)A/ G/e/^F/=d/ | %356
 (E/d/4B/4G/)=F/ E/c/D/B/ (C/B/4G/4E/)D/ C/A/B,/G/ | %357
 A,/B,/4C/4D/C/4B,/4 C/D/4E/4F/E/4D/4 E/^F/4^G/4A/G/4F/4 G/A/4B/4c/B/4A/4 | %358
 (^f/c/^D/)c/ B/A/=G/^F/ G/A/B/c/ F>E | %359
 (E/^C/4=D/4E/)A/ (^F/^D/4E/4F/)B/ (G/E/4F/4G/)=c/ (A/F/4G/4A/)=d/ | %360
 B/G/B/^d/ e/g/b/=d/ c/A/c/e/ f/a/c'/e/ | B/^d/^f/b/ (f/e/d/)^c/ B/d/f/a/ (f/e/d/)c/ | %362
 B/^d/e/f/ (e/=d/=c/)B/ A/B/c/^f/ (c/B/A/)G/ | ^F/G/A/c/ (A/G/F/)E/ ^D/F/A/c/ B/A/G/F/ | %364
 (G/B/4G/4E/)B,/ ^F/A/e/^d/ e4 ::!f! E/e/g/b/ g/e/^d/e/!p! E/e/g/b/ g/e/d/e/ | %366
!f! (E/G/4A/4B/)B,/ E/G/B/^D/!p! (E/G/4A/4B/)B,/ E/G/B/D/ | %367
!f! E/^F/4G/4A/G/4F/4 G/A/4B/4c/B/4A/4 B/G/4A/4B/^c/4^d/4 (e/B/4A/4G/)F/ | %368
!p! E/^F/4G/4A/G/4F/4 G/A/4B/4c/B/4A/4 B/G/4A/4B/^c/4^d/4 (e/B/4A/4G/)F/ | %369
!f! E/G/B/e/ g/b/g/e/ ^d/^f/d/B/ ^F/A/G/F/ |!p! E/G/B/e/ g/b/g/e/ ^d/^f/d/B/ ^F/A/G/F/ | %371
!f! E/G/B/=d/ c/G/^F/E/ D/F/A/c/ B/F/E/D/ | C/E/G/B/ A/G/^F/E/ ^D/B/F/D/ B,/C/A,/B,/ | %373
 (G,/E/4^F/4G/)B/ e/^f/d/e/ (c/e/4d/4c/)B/ A/B/G/A/ | %374
 (^F/D/4E/4F/)A/ d/e/c/d/ (B/G/4A/4B/)d/ g/a/^f/g/ | e/g/e/B/ c/E/G/c/ d/g/d/A/ B/D/G/B/ | %376
 c/g/c/A/ (D/^f/4g/4a/)c/ B/g/d/B/ G/A/=F/G/ | E/c/g/_B/ A/F/A/E/ D/=B/f/A/ G/E/G/D/ | %378
 C/A/e/G/ F/D/F/C/ B,/G/d/F/ E/C/F/D/ | (G/E/C/)E/ G/E/A/F/ (_B/G/E/)G/ B/G/c/G/ | %380
 A/F/A/c/ f/d/a/c/ =B/G/B/d/ g/e/b/d/ | c/A/c/e/ a/f/c'/e/ d/B/d/g/ b/g/d'/f/ | %382
 e/g/4f/4e/f/4g/4 a/B/4c/4d/e/4f/4 g/A/4B/4c/d/4e/4 f/G/4A/4B/c/4d/4 | %383
 e/C/4D/4E/F/4G/4 A/F/d/F/ (G,/F/B/)d/ (c/B/)(A/G/) | %384
 (F/E/4D/4E/)c/ (G,/D/c/)B/ (c/e/4c/4G/)F/ (E/G/4E/4C/)_B,/ | %385
 (A,/G/^c/)G/ c/G/e/G/ (F/d/4A/4F/)E/ (D/A/4F/4D/)=C/ | %386
 (B,/A/^d/)A/ d/A/^f/A/ (^G/e/4B/4G/)^F/ (E/B/4G/4E/)=D/ | %387
 (C/4e/4d/4=c/4)(B/c/4d/4) (c/B/4A/4)(^G/A/4B/4) (^C/4A/4=G/4=F/4)(E/F/4G/4) (F/E/4D/4)(C/D/4E/4) | %388
 (D/f/4e/4d/)c/ B/d/(G/A/4B/4) (=C/e/4d/4c/)B/ A/c/(F/G/4A/4) | %389
 (B,/d/4c/4B/)A/ ^G/d/b/d/ (c/A/4B/4c/)f/ (B/=G/4A/4B/)e/ | %390
 (A/F/4G/4A/)^c/ (d/B/4=c/4d/)f/ (^g/e/4^f/4g/)b/ (d'/b/4g/4)(e/g/4b/4) | %391
 (c'/e'/4c'/4a/)=g/ =f/d'/e/c'/ (d/c'/4a/4f/)e/ d/b/c/a/ | %392
 (B/f/4d/4B/)A/ ^G/d/^F/d/ E/G/B/d/ (=f/e/4d/4c/)B/ | %393
 c/^G/A/^D/ E/c/B/A/4G/4 (A/=F/4=G/4A/)F/ E/=D/C/B,/ | %394
 (C/4E/4^F/4^G/4A/)E/ D/C/B,/A,/ (B,/4C/4D/4E/4=F/)E/ D/B/f/A/ | %395
 (^G/4A/4B/4c/4d/)c/ (B/^g/4a/4b/)d/ (c/4e/4^f/4g/4a/)c/ E/B/a/g/ | %396
!p! (A/^c/)(=g/e/) (A/d/)(^f/d/) (^G/d/)(=f/d/) (=G/c/)(e/c/) | %397
 (^F/A/)(e/A/) (=F/d/)(a/d/) (E/d/b/)a/ ^g/f/e/d/ | (c/e/4c/4A/)E/ B/d/a/^g/ A,4 :| %399
V:2
 A,2 x2 F z E z | D z ^D z x2 ^G, x | x4 E x x2 | F3/2 x/ x2 F x E2 | B, x x2 C2 x2 | %5
 A z z A GF G2 | C x x2 B,/ x/ x x2 | A, x x2 ^D3/2 z/ z E | B, x x2 x4 | G z z ^F GA B z | %10
 ^A-A/4B/4^c/4^d/4 x2 B, x ^F x | E2 x2 D x x2 | C x x2 A, z z A | D z x2 x4 | x4 A x x2 | %15
 x2 A, x D x x2 | G, x x2 C x x2 | B, x A, x E x x2 | x4 =C z z B, | CD E x ^D3/2 x/ x2 | %20
 E=D/=d/ E2 x4 | x4 F2 !trill)!^F2 | x8 |][M:2/4] x4 | x4 | z A/^G/ AA, | E=G^FA | ^G2 =G2 | %28
 ^F2 =F2 | E2 z ^F | G2 ^D2 | E2 z E | A2 z A | D2 z D | G2 z G | C/ x/ x x2 | C z z C | %37
 B, z z A, | ^G, x x2 | A,/ x/ x F2 | EB/A/ B^c | dA/G/ AB | cc/B/ cd | eB/A/ B^c | dd/^c/ de | %45
 ^f^c/B/ c^d | e2 e2 | ^d2 =d2 | c2 =f2 | e2 _e2 | d2 g2 | ^f2 =f2 | ea/^g/ aA | x4 | Gg/^f/ gG | %55
 x4 | F x x2 | E x x2 | D/ x/ x x2 | D x x2 | D z z ^D | Ee/^d/ eE | A,^CB,D | ^C z z C | D z z D | %65
 DB, CD | ED E2 | A,/ x/ x ^G/x/A/ x/ | z D CB, | A,/ x/ x ^G/x/A/ x/ | z D CB, | A,/ x/ x x2 | %72
 B,/ x/ x x2 | C/ x/ x ^G/x/A/ x/ | x4 | x2 ^d/x/e/ x/ | z A G^F | E/ x/ x ^d/x/e/ x/ | z A G^F | %79
 E/ x/ x x2 | ^F/ x/ x x2 | G/ x/ x ^d/x/e/ x/ | AG^FE | ^D z z A | G z B z | Ee/^d/ eE | AcB=d | %87
 c z z A | A(B/A/) (B/G/)(A/^F/) | G z z ^G | (A/E/)(=G/E/) (^F/E/^D/)E/ | ^D z z D | E z A, z | %93
 A, x G,A, | B, x ^D x | EG/^F/ GA | B^F/E/ F^G | A2 A2 | ^G2 =G2 | ^F=F/E/ FG | AE/D/ E^F | %101
 G2 G2 | ^F2 =F2 | E z z C | A, z B, z | C z D z | E x x2 | F x x2 | ^F x x2 | G x x2 | ced=f | %111
 e z z2 | z gg^f | z G/^F/ GG, | CED=F | EGFA | G x x2 | E x x2 | F x x2 | D x x2 | B, x x2 | %121
 C_B,/A,/ B,G, | A, x x2 | G,/ x/ x x2 | x4 | C z z C | C z B, z | A, z B, z | B, x x2 | %129
 CD/C/ (D/B,/)(C/A,/) | B, z z2 | A, x x2 | A, x x2 | x4 | x4 | x4 | x4 | x4 | x4 | x4 | x4 | x4 | %142
 x4 | x4 | x4 | x4 | x4 | eE/F/ Ee | (AF)(GE) | FD/E/ Dd | (GE)(FD) | E2 z e- | ed- dc | FGAF | %154
 G z G, z | C z z2 | ^D z z A | G^F GA | BA B2 | E z z2 | z ee^d | eE/^F/ Ee | BGA^F | G z z2 | %164
 ^G z E z | A z z D | C z E z | EA/^G/ AE | D z z D | G, z z G, | C z z C | F z A z | _B z =B z | %173
 z2 E z | F z ^F z | G z E z | A z A, z | D z B, z | E z E z | F z eE | Dedc | E z dE | A,dcB | %183
 D z cD | G,B/A/ B=F | E z B, z | C z _B^C | D z c2 | G, z z G, | A, z z2 | A, z z2 | B,/ x/ x x2 | %192
 x4 | x4 | E z z D | C x x2 | B, z z A, | G, z ^G, z | A, z (GE) | ^F3 E | ^D x x2 | x4 | x4 | x4 | %204
 x4 | x4 | x4 | x4 | x4 | x4 | z G AB | E z z E | A, x (_BG) | (F/E/D/)E/ F/A/d/f/ | G, x (_AF) | %215
 (E/D/C/)D/ E/^F/^G/A/ | ^G, x x2 | x4 | x4 | E z z C | F z D z | A, z _B, z | G_B,/A,/ B,G | %223
 AA,/G,/ A,A | E z z E | Fedc | _B z =B z | c x d/c/_B/A/ | x4 | x4 | x4 | x4 | x4 | x4 | x4 | x4 | %236
 x4 | x4 | x4 | x4 | x4 | x4 | x4 | G, z z G | F z A z | Dd/^c/ dD | G_BAc | _B, z z2 | _B z A z | %249
 G z z2 | F z z2 | E z z D | ^C z DG, | A, z A, z | D x D2 | ^C2 =C2 | B,B,/A,/ B,^C | %257
 DA,/G,/ A,B, | C2 C2 | B,2 _B,2 | A,A,/G,/ A,=B, | CG,/A,/ G,A, | _B, x D2 | _E2 =E2 | FF/G/ F_E | %265
 DG/A/ GF | E2 E2 | F2 ^F2 | GG/A/ G=F | EA/_B/ AG | F z z2 | ^F z D z | G z z2 | E z C z | %274
 FA/G/ F_E | D_BCA | _B,_B/A/ GF | EcD=B | Cc/d/ ed | A, z A z | D z C z | B, z x2 | x4 | x4 | %284
 E z z2 | E z z2 | E2 z D | ^C/ z/ z d=C | B,dcB, | A,/ z/ z z A, | ^G, z AA, | D z z F | %292
 (F_B)(Bd) | E z z2 | z E/F/ EE | AFGE | FDEA, | D z z2 | FA/G/ FE | D2 z D | DB, CD | ED E2 | %302
 AA,/B,/ A,A | ECDB, | C z z2 | C z B, z | A, z =GE | A, z z2 | D/ x/ x x2 | x4 | CA, EE | A,4 |] %312
[M:3/4] CCCCCC | B,B,B,B,B,B, | CCA,A,DD | G,G, GGGG | GGFFFF | FFEEAA | DDGG G,G, | CCCCCC | %320
 C z z2 B,2 | x2 D4 |1 G,G,A,A,B,B, :|2 G,6 | GGGGGG |: ^GGGGGG | AAFFFF | EE dddd | cccccA | %329
 ^FF ^ddBB | E^FGABB | ee =dddd | ^ccAAAA | dd DDDD | EE^FFFF | GGGG G,G, | %336
 _A,/ x/ x x2 =A,/ x/ x | G, x G,2 x2 |1 CCB,B,A,A, | G,G, GGGG :|2 C6 |][M:2/2] x8 | x8 | x8 | %344
 x8 | x8 | x8 | x8 | x8 | x8 | x8 | x8 | x8 | x8 | x8 | x8 | x8 | x8 | x4 x2 B,2 | x8 | x8 | x8 | %362
 x8 | x8 | x8 :: x8 | x8 | x8 | x8 | x8 | x8 | x8 | x8 | x8 | x8 | x8 | x8 | x8 | x8 | x8 | x8 | %381
 x8 | x8 | x8 | x8 | x8 | x8 | x8 | x8 | x8 | x8 | x8 | x8 | x8 | x8 | x8 | x8 | x8 | x8 :| %399
V:3
 c2 x2 x4 | A x x2 x4 | x4 c x x2 | x8 | G x x2 x4 | x2 x c c x x2 | E x x2 x4 | %7
 E x x2 c3/2 x/ z B/G/ | ^F x x2 x4 | x4 e x x2 | x4 B x x2 | x8 | E x x2 ^c x x2 | A x x2 x4 | %14
 x8 | x2 E x x4 | =B x x2 B-B/4(d/4c/4B/4 A/4^G/4A/4c/4e/4c/4A/4F/4) | A x A x x4 | x8 | %19
 A x x2 c3/2 x/ x2 | x8 | x8 | x8 |][M:2/4] x4 | x4 | x4 | x4 | x4 | x4 | z a/^g/ aA | B2 B2 | %31
 Be/^d/ eB | ^c2 z c | Ad/^c/ dA | B2 x2 | c/ x/ x x2 | x4 | x4 | x4 | E/ x/ x x2 | x4 | x4 | x4 | %43
 x4 | x4 | x4 | x4 | x4 | x4 | x4 | x4 | x4 | x4 | x4 | d x x2 | x4 | c x x2 | ^c x x2 | %58
 d/ x/ x x2 | _B x x2 | Bc/B/ cc | B x x =d | ^c x d x | A x x A | A x x F | x d =c x | x4 | x4 | %68
 x4 | E/ x/ x x2 | x4 | x4 | x4 | x4 | x4 | x4 | x4 | B/ x/ x x2 | x4 | x4 | x4 | x4 | x4 | x4 | %84
 x4 | B x x B | x4 | x4 | x4 | x4 | x4 | x4 | G x G x | ^F x B=c | B x A x | x4 | x4 | x4 | x4 | %99
 x4 | x4 | x4 | x4 | c x x2 | G x G x | c x B x | c x x2 | cf/e/ fc | d x x2 | dg/^f/ gd | x4 | %111
 x4 | x4 | g x x d | e x f x | c z c z | x4 | c x x2 | x4 | A x x2 | x4 | c x x c | c x x2 | %123
 F/ x/ x x2 | x4 | E x x x | ^F x ^G x | A x A x | A x x2 | A x x2 | de/d/ (e/c/)(d/B/) | c z z2 | %132
 d/e/f/e/ d/c/B/A/ | x4 | x4 | x4 | x4 | x4 | x4 | x4 | x4 | x4 | x4 | x4 | x4 | x4 | x4 | x4 | %148
 x4 | x4 | x4 | x4 | x4 | x2 x c | c x FD | E x x2 | x4 | x ^d e x | x4 | x4 | x4 | x4 | x4 | x4 | %164
 x4 | x4 | Ac B=d | c x x2 | ^F x x F | DG/^F/ GD | E x x2 | x4 | x4 | cc/d/ cB | Ad/e/ dc | %175
 B x B x | c z ^c z | Ad/e/ d=c | Be/=f/ ed | cd x2 | x4 | Bc x2 | x4 | AB x2 | x4 | x2 G x | %186
 c x x2 | A=B x2 | B x x G | G x x2 | x4 | ^F/ x/ x x2 | x4 | x4 | B x x2 | B(c/B/) (A/G/)(^F/E/) | %196
 ^F x x ^d | B x E x | (A^F) x2 | x4 | x4 | x4 | x4 | x4 | x4 | x4 | x4 | x4 | x4 | x4 | x4 | %211
 x2 x B | (^cA) x2 | x4 | (BG) x2 | x4 | (E/=F/E/)C/ (D/E/D/)B,/ | x4 | x4 | x4 | x2 G x | %221
 F x F x | c x x c | c x x c | c_B/A/ Bc | c x x2 | x4 | x4 | x4 | x4 | x4 | x4 | x4 | x4 | x4 | %235
 x4 | x4 | x4 | x4 | x4 | x4 | x4 | x4 | E x x2 | x4 | A x x A | _B x x2 | F x x2 | x4 | x4 | x4 | %251
 x4 | E x x G | F x x2 | x4 | x4 | x4 | x4 | x4 | x4 | x4 | x4 | x4 | x4 | x4 | x4 | x4 | x4 | x4 | %269
 x4 | x4 | x4 | x4 | x2 E x | x4 | x4 | x4 | x4 | x4 | ^c x c x | A x A x | ^G x x2 | x4 | x4 | %284
 x4 | x4 | x4 | x4 | x4 | x4 | x4 | x4 | x4 | d z c(=B/A/) | B x x d | c x ^c x | d x ^c x | %297
 (AG)(GF) | x4 | x4 | x d c x | x4 | x4 | c x B x | A x x2 | A x ^G x | AF x2 | d z ^c z | %308
 A/ x/ x x2 | x4 | x c Bd | ^c4 |][M:3/4] x6 | x6 | x2 G/G/A/E/ ^F/A/B/c/ | D x x2 x2 | x6 | %317
 x2 d/d/e/B/ c/e/a/g/ | c/c/d/A/ x2 BB | c x x E E x | x2 x2 G2 | x6 |1 x6 :|2 x6 | x6 |: %325
 x2 x d B x | x6 | BB x2 x2 | x6 | ^dd x2 x2 | B x e x x2 | x6 | x6 | x2 x2 AB | x6 | x6 | %336
 x2 x2 c/ x/ x | c x D2 x2 |1 EEEE^FF | GG x2 x2 :|2 E6 |][M:2/2] x8 | x8 | x8 | x8 | x8 | x8 | %347
 x8 | x8 | x8 | x8 | x8 | x8 | x8 | x8 | x8 | x8 | x8 | x8 | x8 | x8 | x8 | x8 | x8 | x8 :: x8 | %366
 x8 | x8 | x8 | x8 | x8 | x8 | x8 | x8 | x8 | x8 | x8 | x8 | x8 | x8 | x8 | x8 | x8 | x8 | x8 | %385
 x8 | x8 | x8 | x8 | x8 | x8 | x8 | x8 | x8 | x8 | x8 | x8 | x8 | x8 :| %399
V:4
 A2 x2 x4 | x8 | x8 | x8 | x8 | x8 | x8 | x8 | x8 | x8 | x4 G x x2 | x8 | x4 E x x2 | x8 | x8 | %15
 x8 | D x x2 x4 | x8 | x8 | x8 | x8 | x8 | x8 |][M:2/4] x4 | x4 | x4 | x4 | x4 | x4 | x4 | x4 | %31
 x4 | x4 | x4 | x4 | G/ x/ x x2 | x4 | x4 | x4 | x4 | x4 | x4 | x4 | x4 | x4 | x4 | x4 | x4 | x4 | %49
 x4 | x4 | x4 | x4 | x4 | x4 | x4 | x4 | x4 | x4 | x4 | x4 | x4 | E x A x | GG/F/ GE | F x x2 | %65
 x ^G A x | x4 | x4 | x4 | x4 | x4 | x4 | x4 | x4 | x4 | x4 | x4 | x4 | x4 | x4 | x4 | x4 | x4 | %83
 x4 | x4 | x4 | x4 | x4 | x4 | x4 | x4 | x4 | x4 | x2 EE | E x x2 | x4 | x4 | x4 | x4 | x4 | x4 | %101
 x4 | x4 | x4 | x4 | G x x2 | x4 | x4 | x4 | x4 | x4 | x4 | x4 | x2 x G | G x x2 | x4 | x4 | x4 | %118
 x4 | x4 | x4 | G x x G | F x x2 | x4 | x4 | x4 | x4 | x4 | E x x2 | D x x2 | E z z2 | %131
 EA/G/ (A/F/)(G/E/) | F x x2 | x4 | x4 | x4 | x4 | x4 | x4 | x4 | x4 | x4 | x4 | x4 | x4 | x4 | %146
 x4 | x4 | x4 | x4 | x4 | x4 | x4 | x4 | x4 | x4 | x4 | x4 | x4 | x4 | x4 | x4 | x4 | x4 | x4 | %165
 x4 | E x x2 | A, z z A, | x4 | x4 | x4 | x4 | x4 | x4 | x4 | x4 | x2 E x | x2 D z | x4 | x4 | x4 | %181
 x4 | x4 | x4 | x4 | x4 | GA x2 | x4 | D x x2 | x4 | x4 | x4 | x4 | x4 | x4 | E x x2 | x2 x ^F | %197
 E x x2 | x4 | x4 | x4 | x4 | x4 | x4 | x4 | x4 | x4 | x4 | x4 | x4 | x4 | x4 | E x x2 | x4 | %214
 D x x2 | x4 | x4 | x4 | x4 | x4 | x4 | x4 | x4 | x4 | x4 | x4 | x4 | x4 | x4 | x4 | x4 | x4 | x4 | %233
 x4 | x4 | x4 | x4 | x4 | x4 | x4 | x4 | x4 | x4 | x4 | x4 | x4 | x4 | x4 | x4 | x4 | x4 | x4 | %252
 x2 A_B | x4 | x4 | x4 | x4 | x4 | x4 | x4 | x4 | x4 | x4 | x4 | x4 | x4 | x4 | x4 | x4 | x4 | x4 | %271
 x4 | x4 | x4 | x4 | x4 | x4 | x4 | x4 | E z x2 | x2 A z | x4 | x4 | x4 | x4 | x4 | x4 | x4 | x4 | %289
 x4 | x4 | x4 | x4 | x4 | x4 | x4 | x4 | x4 | x4 | x4 | x ^G A x | x4 | x4 | x4 | E x x2 | E x x2 | %306
 x4 | F z E z | x4 | x4 | x E x2 | E4 |][M:3/4] x6 | x6 | x6 | x6 | x6 | x6 | x2 x2 DD | %319
 G x x2 x2 | x6 | x6 |1 x6 :|2 x6 | x6 |: x6 | x6 | x6 | x6 | x6 | x6 | x6 | x6 | x6 | x6 | x6 | %336
 x2 x2 D/ x/ x | E x x2 x2 |1 x6 | x6 :|2 x6 |][M:2/2] x8 | x8 | x8 | x8 | x8 | x8 | x8 | x8 | x8 | %350
 x8 | x8 | x8 | x8 | x8 | x8 | x8 | x8 | x8 | x8 | x8 | x8 | x8 | x8 | x8 :: x8 | x8 | x8 | x8 | %369
 x8 | x8 | x8 | x8 | x8 | x8 | x8 | x8 | x8 | x8 | x8 | x8 | x8 | x8 | x8 | x8 | x8 | x8 | x8 | %388
 x8 | x8 | x8 | x8 | x8 | x8 | x8 | x8 | x8 | x8 | x8 :| %399

